X: 29456
T: Night Of The Big Wind, The
R: reel
M: 4/4
K: Dmajor
B|:AF F2 DF F2|A2 de fdde|f3d BAFA|B2 dB BAFB|
AF F2 DF F2|A2 de fdde|f3d fafe|dBAF E2 E2:|
|:f3d BAFA|B2 dB BAFA|f3e defg|afbf afeg|
fgfd BAFA|B2 dB BAFA|f3e fgfe|dBAF E2 E2:|

